/* XPM */
static char *netpanzer[] = {
/* columns rows colors chars-per-pixel */
"32 32 43 1 ",
"  c #040404",
". c #060807",
"X c #080907",
"o c #0B0D0B",
"O c #0F1010",
"+ c #121612",
"@ c #151916",
"# c #131A18",
"$ c #1B1C19",
"% c #1F271F",
"& c #1F291F",
"* c #20271F",
"= c #1E2422",
"- c #202623",
"; c #252925",
": c #232728",
"> c #272E29",
", c #2B2F2A",
"< c #2C342E",
"1 c #2E392E",
"2 c #30322E",
"3 c #272E30",
"4 c #2C2F30",
"5 c #2D3532",
"6 c #2E3A33",
"7 c #323D34",
"8 c #353E38",
"9 c #383F39",
"0 c #354235",
"q c #384437",
"w c #364338",
"e c #3A453B",
"r c #3C4A3D",
"t c #3D4641",
"y c #3E4C41",
"u c #414D43",
"i c #425244",
"p c #465847",
"a c #475A49",
"s c #495C4B",
"d c #4B604D",
"f c #4E6250",
"g c None",
/* pixels */
"gggggggggggggggggggggggggggggggg",
"gggggggggggggggggggggggggggggggg",
"gggggggggggggggggggggggggggggggg",
"gggggggggggggggggggggggggggggggg",
"gggggggggggggggggggggggggggggggg",
"ggggggggggrreggggggggggggggggggg",
"gggggggggrryeerggggggggggggggggg",
"gggggggqqreeeiy0rrrggggggggggggg",
"gggggg8ery9epy00reeeq8gggggggggg",
"gggggr9qrrterq10qrrrqeiggggggggg",
"ggggtir9eyw7wq0ryqereeusgggggggg",
"ggg89eitty6700wrut9reeepiggggggg",
"gg7qeypue00qq630rreryrreq1gggggg",
"gg,7rpsy66ry0<50tqetrrrere0ggggg",
"gg580rpq160r00qreeeerrrrrrrrgggg",
"gg,500q800ww60rrqquyrqrirreriggg",
"ggg;6867000qqryrerppreyuiiyriigg",
"gggg=>57660wqruiriddieyyriiue7gg",
"ggggg@=3510qrrrytaffatuuetye4ggg",
"gggggg.#>1wreqwqesdssipsiu<@gggg",
"gggggggg+1rq660qettupsddi5Xggggg",
"gggggggg%71;<7760qqyuassqogggggg",
"ggggggg&q7oX$:18777ruuu0oggggggg",
"ggggggg0e%g. o=<272epy=.gggggggg",
"gggggg0q;ggggg @:2,70; ggggggggg",
"ggggg0r7ggggggggO$$::ogggggggggg",
"gggggq0gggggggggggg.gggggggggggg",
"gggggggggggggggggggggggggggggggg",
"gggggggggggggggggggggggggggggggg",
"gggggggggggggggggggggggggggggggg",
"gggggggggggggggggggggggggggggggg",
"gggggggggggggggggggggggggggggggg"
};
